svg/weather/haze_line.svg

<?xml version="1.0" encoding="UTF-8"?>
<svg width="24px" height="24px" viewBox="0 0 24 24" version="1.1" xmlns="http://www.w3.org/2000/svg" xmlns:xlink="http://www.w3.org/1999/xlink">
    <title>haze_line</title>
    <g id="Icon" stroke="none" stroke-width="1" fill="none" fill-rule="evenodd">
        <g id="Weather" transform="translate(-337.000000, -96.000000)" fill-rule="nonzero">
            <g id="haze_line" transform="translate(337.000000, 96.000000)">
                <path d="M24,0 L24,24 L0,24 L0,0 L24,0 Z M12.5935,23.2578 L12.5819,23.2595 L12.5109,23.295 L12.4919,23.2987 L12.4767,23.295 L12.4057,23.2595 C12.3958,23.2564 12.387,23.259 12.3821,23.2649 L12.378,23.2758 L12.3609,23.7031 L12.3659,23.7235 L12.3769,23.7357 L12.4805,23.8097 L12.4953,23.8136 L12.5071,23.8097 L12.6107,23.7357 L12.6233,23.7197 L12.6267,23.7031 L12.6096,23.2758 C12.6076,23.2657 12.601,23.2593 12.5935,23.2578 Z M12.8584,23.1453 L12.8445,23.1473 L12.6598,23.2397 L12.6499,23.2499 L12.6472,23.2611 L12.6651,23.6906 L12.6699,23.7034 L12.6784,23.7105 L12.8793,23.8032 C12.8914,23.8069 12.9022,23.803 12.9078,23.7952 L12.9118,23.7812 L12.8777,23.1665 C12.8753,23.1546 12.8674,23.147 12.8584,23.1453 Z M12.143,23.1473 C12.1332,23.1424 12.1222,23.1453 12.1156,23.1526 L12.1099,23.1665 L12.0758,23.7812 C12.0751,23.7927 12.0828,23.8019 12.0926,23.8046 L12.1083,23.8032 L12.3092,23.7105 L12.3186,23.7024 L12.3225,23.6906 L12.3404,23.2611 L12.3372,23.2485 L12.3278,23.2397 L12.143,23.1473 Z" id="MingCute"></path>
                <path d="M5.49999,3 C4.67156,3 3.99999,3.67157 3.99999,4.5 C3.99999,5.32843 4.67156,6 5.49999,6 C6.32842,6 6.99999,5.32843 6.99999,4.5 C6.99999,3.67157 6.32842,3 5.49999,3 Z M12,3 C11.1716,3 10.5,3.67157 10.5,4.5 C10.5,5.32843 11.1716,6 12,6 C12.8284,6 13.5,5.32843 13.5,4.5 C13.5,3.67157 12.8284,3 12,3 Z M18.5,3 C17.6716,3 17,3.67157 17,4.5 C17,5.32843 17.6716,6 18.5,6 C19.3284,6 20,5.32843 20,4.5 C20,3.67157 19.3284,3 18.5,3 Z M5.49999,18 C4.67156,18 3.99999,18.6716 3.99999,19.5 C3.99999,20.3284 4.67156,21 5.49999,21 C6.32842,21 6.99999,20.3284 6.99999,19.5 C6.99999,18.6716 6.32842,18 5.49999,18 Z M12,18 C11.1716,18 10.5,18.6716 10.5,19.5 C10.5,20.3284 11.1716,21 12,21 C12.8284,21 13.5,20.3284 13.5,19.5 C13.5,18.6716 12.8284,18 12,18 Z M18.5,18 C17.6716,18 17,18.6716 17,19.5 C17,20.3284 17.6716,21 18.5,21 C19.3284,21 20,20.3284 20,19.5 C20,18.6716 19.3284,18 18.5,18 Z M4.25829,14.9152 C2.64828,13.3052 2.64828,10.6948 4.25829,9.08481 C5.776,7.5671 8.20428,7.46778 9.84087,8.85646 L12,10.6885 L14.1591,8.85647 C15.7957,7.46778 18.2239,7.5671 19.7416,9.08481 C21.3517,10.6948 21.3517,13.3052 19.7416,14.9152 C18.2239,16.4329 15.7957,16.5322 14.1591,15.1435 L12,13.3115 L9.84086,15.1435 C8.20428,16.5322 5.776,16.4329 4.25829,14.9152 Z M5.67251,10.499 C4.84354,11.328 4.84354,12.672 5.67251,13.501 C6.45395,14.2824 7.70422,14.3336 8.54687,13.6186 L10.4544,12 L8.54687,10.3814 C7.70423,9.66644 6.45395,9.71758 5.67251,10.499 Z M13.5456,12 L15.4531,13.6185 C16.2957,14.3336 17.546,14.2824 18.3274,13.501 C19.1564,12.672 19.1564,11.328 18.3274,10.499 C17.546,9.71758 16.2957,9.66644 15.4531,10.3815 L13.5456,12 Z" id="形状" fill="#09244B"></path>
            </g>
        </g>
    </g>
</svg>

<svg xmlns="http://www.w3.org/2000/svg" width="24" height="24"><g fill="none" fill-rule="nonzero"><path d="M24 0v24H0V0h24ZM12.594 23.258l-.012.002-.071.035-.02.004-.014-.004-.071-.036c-.01-.003-.019 0-.024.006l-.004.01-.017.428.005.02.01.013.104.074.015.004.012-.004.104-.074.012-.016.004-.017-.017-.427c-.002-.01-.009-.017-.016-.018Zm.264-.113-.014.002-.184.093-.01.01-.003.011.018.43.005.012.008.008.201.092c.012.004.023 0 .029-.008l.004-.014-.034-.614c-.003-.012-.01-.02-.02-.022Zm-.715.002a.023.023 0 0 0-.027.006l-.006.014-.034.614c0 .012.007.02.017.024l.015-.002.201-.093.01-.008.003-.011.018-.43-.003-.012-.01-.01-.184-.092Z"/><path fill="#09244B" d="M5.5 3a1.5 1.5 0 1 0 0 3 1.5 1.5 0 0 0 0-3ZM12 3a1.5 1.5 0 1 0 0 3 1.5 1.5 0 0 0 0-3Zm6.5 0a1.5 1.5 0 1 0 0 3 1.5 1.5 0 0 0 0-3Zm-13 15a1.5 1.5 0 1 0 0 3 1.5 1.5 0 0 0 0-3Zm6.5 0a1.5 1.5 0 1 0 0 3 1.5 1.5 0 0 0 0-3Zm6.5 0a1.5 1.5 0 1 0 0 3 1.5 1.5 0 0 0 0-3ZM4.258 14.915a4.123 4.123 0 0 1 5.583-6.059L12 10.688l2.16-1.832a4.123 4.123 0 1 1 0 6.288L12 13.311l-2.16 1.832a4.123 4.123 0 0 1-5.582-.229ZM5.673 10.5a2.123 2.123 0 0 0 2.874 3.12L10.454 12l-1.907-1.619a2.123 2.123 0 0 0-2.874.118ZM13.546 12l1.907 1.618a2.123 2.123 0 1 0 0-3.236L13.546 12Z"/></g></svg>
